; Generated by PythonSlicer (Bunny Fixed)
G21 ; mm
G90 ; Abs pos
M83 ; Rel E
G28 ; Home
G1 Z5.0 F3000
;LAYER:0
G0 Z0.500 F3000
;TYPE:SUPPORT
G1 E-1.0 F2400
G0 X-4.097 Y-3.006 F6000
G1 E1.0 F2400
G1 X-7.092 Y-3.006 E0.14973 F2400
G1 X-4.097 Y-4.206 E0.16131 F2400
G1 X3.899 Y-4.206 E0.39979 F2400
G1 X5.243 Y-5.406 E0.09012 F2400
G1 X-4.097 Y-5.406 E0.46704 F2400
G1 X-4.097 Y-6.606 E0.06000 F2400
G1 X5.722 Y-6.606 E0.49094 F2400
G1 X6.935 Y-7.806 E0.08534 F2400
G1 X-4.097 Y-7.806 E0.55163 F2400
G1 E-1.0 F2400
G0 X-5.540 Y-8.613 F6000
G1 E1.0 F2400
G1 X-5.896 Y-8.613 E0.01781 F2400
G1 X-5.896 Y-8.535 E0.00394 F2400
G1 X-6.001 Y-8.747 E0.01184 F2400
G1 X-6.049 Y-8.813 E0.00412 F2400
G1 X-6.096 Y-8.860 E0.00329 F2400
G1 X-6.096 Y-9.931 E0.05357 F2400
G1 X-5.540 Y-8.613 E0.07152 F2400
G1 E-1.0 F2400
G0 X-5.705 Y-9.006 F6000
G1 E1.0 F2400
G1 X-6.096 Y-9.006 E0.01955 F2400
G1 E-1.0 F2400
G0 X-4.858 Y-10.206 F6000
G1 E1.0 F2400
G1 X20.086 Y-10.206 E1.24721 F2400
G1 X14.090 Y-11.406 E0.30575 F2400
G1 X-5.129 Y-11.406 E0.96098 F2400
G1 E-1.0 F2400
G0 X-3.678 Y-13.806 F6000
G1 E1.0 F2400
G1 X-1.899 Y-13.806 E0.08897 F2400
G1 X2.098 Y-13.806 E0.19985 F2400
G1 X-0.100 Y-13.806 E0.10992 F2400
G1 X-4.550 Y-12.606 E0.23044 F2400
G1 X7.312 Y-12.606 E0.59309 F2400
G1 E-1.0 F2400
G0 X9.246 Y-13.806 F6000
G1 E1.0 F2400
G1 X12.091 Y-13.806 E0.14227 F2400
G1 X14.090 Y-12.606 E0.11658 F2400
G1 X9.886 Y-12.606 E0.21021 F2400
G1 E-1.0 F2400
G0 X9.759 Y-9.006 F6000
G1 E1.0 F2400
G1 X20.086 Y-9.006 E0.51639 F2400
G1 X24.083 Y-7.806 E0.20866 F2400
G1 X11.387 Y-7.806 E0.63481 F2400
G1 X10.043 Y-6.606 E0.09008 F2400
G1 X24.083 Y-6.606 E0.70200 F2400
G1 X24.083 Y-5.406 E0.06000 F2400
G1 X7.969 Y-5.406 E0.80570 F2400
G1 E-1.0 F2400
G0 X7.895 Y-3.006 F6000
G1 E1.0 F2400
G1 X12.099 Y-3.006 E0.21023 F2400
G1 E-1.0 F2400
G0 X13.891 Y-1.806 F6000
G1 E1.0 F2400
G1 X24.083 Y-1.806 E0.50962 F2400
G1 X24.083 Y-3.006 E0.06000 F2400
G1 X14.386 Y-3.006 E0.48488 F2400
G1 E-1.0 F2400
G0 X12.463 Y-0.606 F6000
G1 E1.0 F2400
G1 X22.085 Y-0.606 E0.48110 F2400
G1 X22.085 Y0.594 E0.06000 F2400
G1 X11.892 Y0.594 E0.50967 F2400
G1 E-1.0 F2400
G0 X11.059 Y1.794 F6000
G1 E1.0 F2400
G1 X14.090 Y1.794 E0.15154 F2400
G1 X14.090 Y2.994 E0.06000 F2400
G1 X10.934 Y2.994 E0.15780 F2400
G1 X10.816 Y4.194 E0.06029 F2400
G1 X14.090 Y4.194 E0.16371 F2400
G1 X14.090 Y5.394 E0.06000 F2400
G1 X10.370 Y5.394 E0.18600 F2400
G1 X9.893 Y6.594 E0.06457 F2400
G1 X14.090 Y6.594 E0.20987 F2400
G1 E-1.0 F2400
G0 X12.091 Y7.794 F6000
G1 E1.0 F2400
G1 X3.898 Y7.794 E0.40967 F2400
G1 E-1.0 F2400
G0 X2.098 Y8.807 F6000
G1 E1.0 F2400
G1 X-0.100 Y8.807 E0.10992 F2400
G1 X-0.100 Y8.350 E0.02281 F2400
G1 X0.785 Y8.194 E0.04493 F2400
G1 X0.811 Y8.188 E0.00135 F2400
G1 X2.046 Y7.830 E0.06431 F2400
G1 X2.098 Y7.828 E0.00260 F2400
G1 X2.098 Y8.807 E0.04894 F2400
G1 E-1.0 F2400
G0 X-6.096 Y-1.806 F6000
G1 E1.0 F2400
G1 X-0.473 Y-1.806 E0.28114 F2400
G1 X-6.243 Y-0.606 E0.29466 F2400
G1 X-8.094 Y-0.606 E0.09255 F2400
G1 E-1.0 F2400
G0 X-9.743 Y-3.607 F6000
G1 E1.0 F2400
G1 X-10.093 Y-3.881 E0.02223 F2400
G1 X-10.093 Y-4.742 E0.04305 F2400
G1 X-10.265 Y-4.742 E0.00858 F2400
G1 X-8.717 Y-6.872 E0.13160 F2400
G1 X-8.521 Y-6.872 E0.00981 F2400
G1 X-9.743 Y-3.607 E0.17428 F2400
G1 E-1.0 F2400
G0 X-9.519 Y-4.206 F6000
G1 E1.0 F2400
G1 X-10.093 Y-4.206 E0.02870 F2400
G1 E-1.0 F2400
G0 X-9.783 Y-5.406 F6000
G1 E1.0 F2400
G1 X-9.070 Y-5.406 E0.03564 F2400
G1 X-8.621 Y-6.606 E0.06407 F2400
G1 X-8.911 Y-6.606 E0.01450 F2400
G1 E-1.0 F2400
G0 X-15.302 Y-7.806 F6000
G1 E1.0 F2400
G1 X-22.085 Y-7.806 E0.33916 F2400
G1 E-1.0 F2400
G0 X-22.085 Y-6.606 F6000
G1 E1.0 F2400
G1 X-15.889 Y-6.606 E0.30982 F2400
G1 X-16.206 Y-5.406 E0.06206 F2400
G1 X-22.085 Y-5.406 E0.29395 F2400
G1 E-1.0 F2400
G0 X-20.086 Y-4.206 F6000
G1 E1.0 F2400
G1 X-17.243 Y-4.206 E0.14214 F2400
G1 X-17.988 Y-3.006 E0.07062 F2400
G1 X-20.086 Y-3.006 E0.10491 F2400
G1 X-22.085 Y-1.806 E0.11658 F2400
G1 X-18.110 Y-1.806 E0.19874 F2400
G1 E-1.0 F2400
G0 X-20.086 Y-0.606 F6000
G1 E1.0 F2400
G1 X-18.148 Y-0.606 E0.09693 F2400
G1 X-17.888 Y0.594 E0.06139 F2400
G1 X-20.086 Y0.594 E0.10992 F2400
G1 E-1.0 F2400
G0 X-18.087 Y1.794 F6000
G1 E1.0 F2400
G1 X-16.645 Y1.794 E0.07213 F2400
G1 X-14.280 Y2.994 E0.13258 F2400
G1 X-18.087 Y2.994 E0.19036 F2400
G1 X-18.087 Y4.194 E0.06000 F2400
G1 X-10.698 Y4.194 E0.36945 F2400
G1 E-1.0 F2400
G0 X-12.091 Y5.394 F6000
G1 E1.0 F2400
G1 X-10.051 Y5.394 E0.10202 F2400
G1 X-9.893 Y6.594 E0.06052 F2400
G1 X-12.091 Y6.594 E0.10992 F2400
G1 E-1.0 F2400
G0 X-13.891 Y7.794 F6000
G1 E1.0 F2400
G1 X-20.086 Y7.794 E0.30977 F2400
G1 X-20.086 Y6.594 E0.06000 F2400
G1 X-15.889 Y6.594 E0.20987 F2400
G1 X-15.889 Y5.394 E0.06000 F2400
G1 X-20.086 Y5.394 E0.20987 F2400
G1 E-1.0 F2400
G0 X-20.086 Y8.994 F6000
G1 E1.0 F2400
G1 X-15.889 Y8.994 E0.20987 F2400
G1 X-15.889 Y10.194 E0.06000 F2400
G1 X-20.086 Y10.194 E0.20987 F2400
G1 X-20.086 Y11.394 E0.06000 F2400
G1 X-15.889 Y11.394 E0.20987 F2400
G1 X-15.889 Y12.594 E0.06000 F2400
G1 X-20.086 Y12.594 E0.20987 F2400
G1 X-20.086 Y13.794 E0.06000 F2400
G1 X-15.889 Y13.794 E0.20987 F2400
G1 E-1.0 F2400
G0 X-16.089 Y17.394 F6000
G1 E1.0 F2400
G1 X-13.891 Y17.394 E0.10992 F2400
G1 E-1.0 F2400
G0 X-13.891 Y18.485 F6000
G1 E1.0 F2400
G1 X-16.089 Y18.485 E0.10992 F2400
G1 X-16.089 Y16.355 E0.10646 F2400
G1 X-13.891 Y16.355 E0.10992 F2400
G1 X-13.891 Y18.485 E0.10646 F2400
G1 E-1.0 F2400
G0 X-20.086 Y16.194 F6000
G1 E1.0 F2400
G1 X-17.888 Y16.194 E0.10992 F2400
G1 X-17.888 Y14.994 E0.06000 F2400
G1 X-20.086 Y14.994 E0.10992 F2400
G1 E-1.0 F2400
G0 X-15.889 Y-9.006 F6000
G1 E1.0 F2400
G1 X-20.086 Y-9.006 E0.20987 F2400
G1 X-24.083 Y-9.006 E0.19985 F2400
G1 X-21.885 Y-9.006 E0.10992 F2400
G1 X-21.885 Y-10.206 E0.06000 F2400
G1 X-24.083 Y-10.206 E0.10992 F2400
G1 E-1.0 F2400
G0 X-24.083 Y-11.406 F6000
G1 E1.0 F2400
G1 X-19.887 Y-11.406 E0.20982 F2400
G1 X-15.919 Y-11.406 E0.19839 F2400
G1 X-18.087 Y-11.406 E0.10841 F2400
G1 E-1.0 F2400
G0 X-19.887 Y-12.484 F6000
G1 E1.0 F2400
G1 X-19.887 Y-10.743 E0.08709 F2400
G1 X-18.087 Y-10.743 E0.08998 F2400
G1 X-18.087 Y-12.484 E0.08709 F2400
G1 X-19.887 Y-12.484 E0.08998 F2400
G1 E-1.0 F2400
G0 X-21.885 Y-10.549 F6000
G1 E1.0 F2400
G1 X-21.885 Y-8.807 E0.08714 F2400
G1 X-20.086 Y-8.807 E0.08993 F2400
G1 X-20.086 Y-10.549 E0.08714 F2400
G1 X-21.885 Y-10.549 E0.08993 F2400
G1 E-1.0 F2400
G0 X-24.083 Y-13.806 F6000
G1 E1.0 F2400
G1 X-17.888 Y-13.806 E0.30977 F2400
G1 X-14.977 Y-13.806 E0.14553 F2400
G1 X-16.089 Y-13.806 E0.05561 F2400
G1 X-24.083 Y-12.606 E0.40418 F2400
G1 X-15.615 Y-12.606 E0.42340 F2400
G1 E-1.0 F2400
G0 X-15.889 Y-14.614 F6000
G1 E1.0 F2400
G1 X-14.056 Y-14.614 E0.09165 F2400
G1 X-14.386 Y-14.404 E0.01956 F2400
G1 X-14.424 Y-14.373 E0.00245 F2400
G1 X-14.888 Y-13.930 E0.03209 F2400
G1 X-14.925 Y-13.885 E0.00290 F2400
G1 X-15.292 Y-13.322 E0.03360 F2400
G1 X-15.316 Y-13.274 E0.00271 F2400
G1 X-15.438 Y-12.949 E0.01735 F2400
G1 X-15.538 Y-12.846 E0.00715 F2400
G1 X-15.654 Y-12.484 E0.01900 F2400
G1 X-15.889 Y-12.484 E0.01174 F2400
G1 X-15.889 Y-11.751 E0.03667 F2400
G1 X-15.900 Y-11.692 E0.00299 F2400
G1 X-15.997 Y-10.237 E0.07295 F2400
G1 X-15.995 Y-10.185 E0.00258 F2400
G1 X-15.906 Y-9.548 E0.03217 F2400
G1 X-15.895 Y-9.504 E0.00228 F2400
G1 X-15.889 Y-9.484 E0.00102 F2400
G1 X-15.889 Y-8.807 E0.03388 F2400
G1 X-15.663 Y-8.807 E0.01130 F2400
G1 X-15.507 Y-8.340 E0.02459 F2400
G1 X-15.504 Y-8.329 E0.00057 F2400
G1 X-15.093 Y-7.263 E0.05714 F2400
G1 X-15.086 Y-6.812 E0.02254 F2400
G1 X-15.134 Y-6.677 E0.00714 F2400
G1 X-15.889 Y-6.677 E0.03774 F2400
G1 X-15.889 Y-5.773 E0.04522 F2400
G1 X-17.585 Y-3.811 E0.12968 F2400
G1 X-17.620 Y-3.757 E0.00322 F2400
G1 X-18.049 Y-2.881 E0.04877 F2400
G1 X-18.075 Y-2.779 E0.00525 F2400
G1 X-18.154 Y-0.628 E0.10762 F2400
G1 X-18.116 Y-0.485 E0.00741 F2400
G1 X-17.888 Y-0.114 E0.02177 F2400
G1 X-17.888 Y0.871 E0.04927 F2400
G1 X-17.521 Y0.871 E0.01835 F2400
G1 X-17.477 Y0.991 E0.00634 F2400
G1 X-17.425 Y1.076 E0.00500 F2400
G1 X-17.001 Y1.530 E0.03106 F2400
G1 X-16.965 Y1.563 E0.00243 F2400
G1 X-16.213 Y2.107 E0.04642 F2400
G1 X-16.220 Y2.190 E0.00417 F2400
G1 X-15.934 Y2.309 E0.01552 F2400
G1 X-15.889 Y2.341 E0.00277 F2400
G1 X-15.889 Y2.806 E0.02326 F2400
G1 X-14.733 Y2.806 E0.05777 F2400
G1 X-12.488 Y3.737 E0.12153 F2400
G1 X-12.424 Y3.754 E0.00330 F2400
G1 X-11.725 Y3.845 E0.03526 F2400
G1 X-10.909 Y4.070 E0.04235 F2400
G1 X-10.605 Y4.249 E0.01761 F2400
G1 X-9.954 Y5.594 E0.07471 F2400
G1 X-9.893 Y5.821 E0.01177 F2400
G1 X-9.893 Y6.872 E0.05251 F2400
G1 X-12.091 Y6.872 E0.10992 F2400
G1 X-12.091 Y4.936 E0.09680 F2400
G1 X-15.889 Y4.936 E0.18988 F2400
G1 X-15.889 Y6.677 E0.08709 F2400
G1 X-13.891 Y6.677 E0.09990 F2400
G1 X-13.891 Y8.807 E0.10646 F2400
G1 X-15.889 Y8.807 E0.09990 F2400
G1 X-15.889 Y14.614 E0.29035 F2400
G1 X-17.888 Y14.614 E0.09995 F2400
G1 X-17.888 Y16.550 E0.09680 F2400
G1 X-20.086 Y16.550 E0.10992 F2400
G1 X-20.086 Y4.742 E0.59036 F2400
G1 X-18.087 Y4.742 E0.09995 F2400
G1 X-18.087 Y1.065 E0.18389 F2400
G1 X-20.086 Y1.065 E0.09995 F2400
G1 X-20.086 Y-0.871 E0.09680 F2400
G1 X-22.085 Y-0.871 E0.09995 F2400
G1 X-22.085 Y-3.001 E0.10646 F2400
G1 X-20.086 Y-3.001 E0.09995 F2400
G1 X-20.086 Y-4.742 E0.08709 F2400
G1 X-22.085 Y-4.742 E0.09995 F2400
G1 X-22.085 Y-8.613 E0.19355 F2400
G1 X-24.083 Y-8.613 E0.09990 F2400
G1 X-24.083 Y-14.614 E0.30001 F2400
G1 X-22.085 Y-14.614 E0.09990 F2400
G1 X-22.085 Y-16.550 E0.09680 F2400
G1 X-15.889 Y-16.550 E0.30982 F2400
G1 X-15.889 Y-14.614 E0.09680 F2400
G1 E-1.0 F2400
G0 X-17.888 Y-14.420 F6000
G1 E1.0 F2400
G1 X-17.888 Y-12.679 E0.08709 F2400
G1 X-16.089 Y-12.679 E0.08993 F2400
G1 X-16.089 Y-14.420 E0.08709 F2400
G1 X-17.888 Y-14.420 E0.08993 F2400
G1 E-1.0 F2400
G0 X-22.085 Y-15.006 F6000
G1 E1.0 F2400
G1 X-15.889 Y-15.006 E0.30982 F2400
G1 X-15.889 Y-16.206 E0.06000 F2400
G1 X-22.085 Y-16.206 E0.30982 F2400
G1 E-1.0 F2400
G0 X-7.895 Y-13.774 F6000
G1 E1.0 F2400
G1 X-8.014 Y-13.867 E0.00755 F2400
G1 X-8.091 Y-13.908 E0.00434 F2400
G1 X-8.518 Y-14.047 E0.02249 F2400
G1 X-8.617 Y-14.059 E0.00499 F2400
G1 X-8.865 Y-14.038 E0.01241 F2400
G1 X-9.231 Y-14.241 E0.02092 F2400
G1 X-9.354 Y-14.272 E0.00638 F2400
G1 X-9.669 Y-14.272 E0.01571 F2400
G1 X-9.811 Y-14.341 E0.00791 F2400
G1 X-10.093 Y-14.538 E0.01722 F2400
G1 X-10.093 Y-14.614 E0.00378 F2400
G1 X-7.895 Y-14.614 E0.10992 F2400
G1 X-7.895 Y-13.774 E0.04198 F2400
G1 E-1.0 F2400
G0 X-6.096 Y-15.006 F6000
G1 E1.0 F2400
G1 X2.303 Y-15.006 E0.41994 F2400
G1 E-1.0 F2400
G0 X2.629 Y-15.477 F6000
G1 E1.0 F2400
G1 X2.382 Y-15.279 E0.01587 F2400
G1 X2.259 Y-14.855 E0.02207 F2400
G1 X2.271 Y-14.679 E0.00880 F2400
G1 X2.385 Y-14.420 E0.01415 F2400
G1 X2.098 Y-14.420 E0.01434 F2400
G1 X2.098 Y-12.679 E0.08709 F2400
G1 X3.898 Y-12.679 E0.08998 F2400
G1 X3.898 Y-13.977 E0.06490 F2400
G1 X4.065 Y-13.824 E0.01132 F2400
G1 X4.441 Y-13.816 E0.01880 F2400
G1 X4.586 Y-13.937 E0.00944 F2400
G1 X4.773 Y-13.712 E0.01466 F2400
G1 X5.058 Y-13.624 E0.01491 F2400
G1 X5.510 Y-13.755 E0.02353 F2400
G1 X5.510 Y-13.638 E0.00586 F2400
G1 X5.699 Y-13.282 E0.02014 F2400
G1 X5.800 Y-13.179 E0.00723 F2400
G1 X6.041 Y-13.045 E0.01375 F2400
G1 X6.096 Y-13.032 E0.00285 F2400
G1 X6.096 Y-12.679 E0.01769 F2400
G1 X7.137 Y-12.679 E0.05206 F2400
G1 X7.180 Y-12.666 E0.00221 F2400
G1 X7.234 Y-12.656 E0.00277 F2400
G1 X7.263 Y-12.654 E0.00146 F2400
G1 X7.455 Y-12.461 E0.01361 F2400
G1 X7.548 Y-12.402 E0.00547 F2400
G1 X7.828 Y-12.299 E0.01496 F2400
G1 X7.952 Y-12.286 E0.00620 F2400
G1 X8.347 Y-12.342 E0.01997 F2400
G1 X8.409 Y-12.277 E0.00450 F2400
G1 X8.728 Y-12.050 E0.01956 F2400
G1 X8.833 Y-12.006 E0.00568 F2400
G1 X9.178 Y-11.948 E0.01753 F2400
G1 X9.323 Y-11.966 E0.00728 F2400
G1 X9.657 Y-12.111 E0.01821 F2400
G1 X9.806 Y-12.287 E0.01152 F2400
G1 X9.883 Y-12.584 E0.01536 F2400
G1 X9.891 Y-12.651 E0.00339 F2400
G1 X9.887 Y-12.894 E0.01213 F2400
G1 X9.867 Y-12.990 E0.00489 F2400
G1 X9.698 Y-13.381 E0.02132 F2400
G1 X9.644 Y-13.460 E0.00475 F2400
G1 X9.394 Y-13.709 E0.01766 F2400
G1 X9.344 Y-13.748 E0.00318 F2400
G1 X9.080 Y-13.903 E0.01534 F2400
G1 X8.902 Y-13.926 E0.00897 F2400
G1 X8.848 Y-14.003 E0.00471 F2400
G1 X8.492 Y-14.301 E0.02319 F2400
G1 X8.356 Y-14.359 E0.00740 F2400
G1 X8.042 Y-14.394 E0.01581 F2400
G1 X7.987 Y-14.394 E0.00272 F2400
G1 X7.895 Y-14.384 E0.00466 F2400
G1 X7.895 Y-14.420 E0.00183 F2400
G1 X7.648 Y-14.420 E0.01236 F2400
G1 X7.421 Y-14.478 E0.01169 F2400
G1 X7.367 Y-14.485 E0.00270 F2400
G1 X7.326 Y-14.486 E0.00206 F2400
G1 X7.056 Y-14.631 E0.01533 F2400
G1 X7.005 Y-14.651 E0.00274 F2400
G1 X6.614 Y-14.760 E0.02025 F2400
G1 X6.544 Y-14.769 E0.00353 F2400
G1 X6.278 Y-14.766 E0.01331 F2400
G1 X6.134 Y-14.720 E0.00758 F2400
G1 X5.887 Y-14.546 E0.01510 F2400
G1 X5.808 Y-14.456 E0.00599 F2400
G1 X5.724 Y-14.296 E0.00906 F2400
G1 X5.667 Y-14.590 E0.01498 F2400
G1 X5.632 Y-14.678 E0.00476 F2400
G1 X5.469 Y-14.931 E0.01504 F2400
G1 X5.348 Y-15.031 E0.00785 F2400
G1 X4.990 Y-15.173 E0.01927 F2400
G1 X4.880 Y-15.190 E0.00555 F2400
G1 X4.696 Y-15.178 E0.00924 F2400
G1 X4.294 Y-15.268 E0.02060 F2400
G1 X4.177 Y-15.267 E0.00581 F2400
G1 X4.019 Y-15.228 E0.00814 F2400
G1 X3.947 Y-15.289 E0.00473 F2400
G1 X3.838 Y-15.343 E0.00609 F2400
G1 X3.138 Y-15.498 E0.03586 F2400
G1 X3.068 Y-15.504 E0.00348 F2400
G1 X2.629 Y-15.477 E0.02199 F2400
G1 E-1.0 F2400
G0 X0.100 Y-16.550 F6000
G1 E1.0 F2400
G1 X3.898 Y-16.550 E0.18988 F2400
G1 X3.898 Y-18.485 E0.09675 F2400
G1 X8.094 Y-18.485 E0.20982 F2400
G1 X8.094 Y-16.550 E0.09675 F2400
G1 X12.091 Y-16.550 E0.19985 F2400
G1 X12.091 Y-12.679 E0.19355 F2400
G1 X14.090 Y-12.679 E0.09995 F2400
G1 X14.090 Y-10.743 E0.09680 F2400
G1 X20.086 Y-10.743 E0.29980 F2400
G1 X20.086 Y-8.807 E0.09680 F2400
G1 X24.083 Y-8.807 E0.19985 F2400
G1 X24.083 Y-0.871 E0.39676 F2400
G1 X22.085 Y-0.871 E0.09990 F2400
G1 X22.085 Y1.065 E0.09680 F2400
G1 X14.090 Y1.065 E0.39975 F2400
G1 X14.090 Y6.872 E0.29035 F2400
G1 X12.091 Y6.872 E0.09995 F2400
G1 X12.091 Y8.807 E0.09675 F2400
G1 X3.898 Y8.807 E0.40967 F2400
G1 X3.898 Y7.642 E0.05825 F2400
G1 X6.053 Y7.323 E0.10893 F2400
G1 X6.089 Y7.314 E0.00185 F2400
G1 X6.973 Y7.046 E0.04619 F2400
G1 X7.841 Y6.862 E0.04436 F2400
G1 X7.876 Y6.852 E0.00183 F2400
G1 X8.345 Y6.677 E0.02501 F2400
G1 X9.893 Y6.677 E0.07739 F2400
G1 X9.893 Y5.884 E0.03966 F2400
G1 X10.112 Y5.766 E0.01244 F2400
G1 X10.211 Y5.669 E0.00693 F2400
G1 X10.738 Y4.759 E0.05257 F2400
G1 X10.770 Y4.657 E0.00535 F2400
G1 X11.048 Y1.842 E0.14147 F2400
G1 X11.229 Y1.098 E0.03825 F2400
G1 X11.356 Y0.871 E0.01299 F2400
G1 X11.892 Y0.871 E0.02680 F2400
G1 X11.892 Y0.063 E0.04041 F2400
G1 X11.894 Y0.060 E0.00019 F2400
G1 X11.936 Y-0.003 E0.00379 F2400
G1 X12.070 Y-0.294 E0.01604 F2400
G1 X12.619 Y-0.729 E0.03502 F2400
G1 X12.676 Y-0.792 E0.00423 F2400
G1 X12.817 Y-1.015 E0.01320 F2400
G1 X12.879 Y-1.065 E0.00398 F2400
G1 X13.891 Y-1.065 E0.05058 F2400
G1 X13.891 Y-2.092 E0.05135 F2400
G1 X14.101 Y-2.318 E0.01542 F2400
G1 X14.151 Y-2.398 E0.00475 F2400
G1 X14.686 Y-3.783 E0.07424 F2400
G1 X14.703 Y-3.873 E0.00456 F2400
G1 X14.705 Y-4.257 E0.01920 F2400
G1 X14.686 Y-4.355 E0.00501 F2400
G1 X14.448 Y-4.928 E0.03099 F2400
G1 X14.385 Y-5.016 E0.00542 F2400
G1 X14.029 Y-5.344 E0.02421 F2400
G1 X13.720 Y-5.388 E0.01561 F2400
G1 X13.405 Y-5.229 E0.01765 F2400
G1 X13.267 Y-5.053 E0.01116 F2400
G1 X13.207 Y-4.792 E0.01341 F2400
G1 X13.027 Y-4.601 E0.01312 F2400
G1 X12.983 Y-4.536 E0.00394 F2400
G1 X12.809 Y-4.166 E0.02044 F2400
G1 X12.297 Y-3.577 E0.03901 F2400
G1 X12.246 Y-3.485 E0.00526 F2400
G1 X12.059 Y-2.874 E0.03192 F2400
G1 X11.600 Y-2.334 E0.03546 F2400
G1 X10.883 Y-1.800 E0.04471 F2400
G1 X10.646 Y-1.726 E0.01241 F2400
G1 X10.401 Y-1.726 E0.01223 F2400
G1 X9.950 Y-1.870 E0.02368 F2400
G1 X9.885 Y-1.881 E0.00332 F2400
G1 X8.649 Y-1.934 E0.06183 F2400
G1 X8.198 Y-2.417 E0.03305 F2400
G1 X8.127 Y-2.470 E0.00441 F2400
G1 X7.895 Y-2.587 E0.01302 F2400
G1 X7.895 Y-5.363 E0.13876 F2400
G1 X11.298 Y-7.332 E0.19662 F2400
G1 X11.429 Y-7.641 E0.01678 F2400
G1 X11.303 Y-8.136 E0.02553 F2400
G1 X11.166 Y-8.306 E0.01089 F2400
